!!!COM: Mozart, Wolfgang Amadeus
!!!CDT: 1756/01/27/-1791/12/05/
!!!CNT: German
!!!OTL: Piano Sonata No. 2 in F major
!!!SCT1: K<sup>1</sup> 280
!!!SCT2: K<sup>6</sup> 189e
!!!OMV: Mvmt. 1
!!!OMD: Allegro assai
!!!ODT: 1774///
**kern	**dynam	**kern	**dynam
*staff2	*	*staff1	*staff1/2
*>[A,A,B,B]	*	*>[A,A,B,B]	*>[A,A,B,B]
*>norep[A,B]	*	*>norep[A,B]	*>norep[A,B]
*>A	*	*>A	*>A
*clefF4	*	*clefG2	*clefG2
*k[b-]	*	*k[b-]	*k[b-]
*F:	*	*F:	*F:
*M3/4	*	*M3/4	*M3/4
*MM152	*	*MM152	*MM152
=1-	=1-	=1-	=1-
4FF/ 4F/	.	4c:/ 4f:/ 4a:/ 4cc:/	f
4C/	.	4a/ 4cc/	.
4AA/	.	4a/ 4cc/	.
=2	=2	=2	=2
4FF/	.	4.a/ 4.cc/	.
4FFF/	.	.	.
.	.	(16dd\LL	.
.	.	16cc\JJ	.
4r	.	16b-/LL	.
.	.	16a/	.
.	.	16g/	.
.	.	16f/JJ	.
=3	=3	=3	=3
8F\ 8A\L	.	4ff\	.
8F\ 8A\	.	.	.
8F\ 8G\ 8B-\	.	4ee\	.
8F\ 8G\ 8B-\	.	.	.
8F\ 8A\ 8c\	.	4ee-\)	.
8F\ 8A\ 8c\J	.	.	.
=4	=4	=4	=4
8F\ 8B-\ 8d\L	.	4dd\	.
8F\ 8B-\ 8d\	.	.	.
8F\ 8B-\ 8d\	.	4r	.
8F\ 8B-\ 8d\	.	.	.
8F\ 8B-\ 8d\	.	4r	.
8F\ 8B-\ 8d\J	.	.	.
=5	=5	=5	=5
8F\ 8G\ 8e\L	.	(8cc\L	p
8F\ 8G\ 8e\	.	8b-\J)	.
8F\ 8G\ 8e\	.	4b-'\	.
8F\ 8G\ 8e\	.	.	.
8F\ 8G\ 8e\	.	4r	.
8F\ 8G\ 8e\J	.	.	.
=6	=6	=6	=6
8F\ 8A\ 8f\L	.	(8dd\L	.
8F\ 8A\ 8f\	.	8cc\J)	.
8F\ 8A\ 8f\	.	4cc'\	.
8F\ 8A\ 8f\	.	.	.
8F\ 8A\ 8f\	.	4r	.
8F\ 8A\ 8f\J	.	.	.
=7	=7	=7	=7
4E:\ 4G:\ 4c:\	.	(16bb-\LL	f
.	.	16aa\	.
.	.	16gg\	.
.	.	16aa\JJ	.
4r	.	16gg\LL	.
.	.	16ff\	.
.	.	16ee\	.
.	.	16ff\JJ	.
4r	.	16ee\LL	.
.	.	16dd\	.
.	.	16cc\	.
.	.	16b-\JJ	.
=8	=8	=8	=8
(16F\LL	.	8a/)	.
16c\	.	.	.
16A\	.	(4ff\	.
16c\JJ	.	.	.
16G\LL	.	.	.
16c\	.	.	.
16B-\	.	4ee\	.
16c\JJ	.	.	.
16A\LL	.	.	.
16c\	.	.	.
16A\	.	8ff\)	.
16c\JJ	.	.	.
=9	=9	=9	=9
8B-\)	.	8r	.
8r	.	8f/ 8dd/	p
8BB-/	.	8r	.
8r	.	8B-/ 8g/	.
8C/	.	8r	.
8r	.	8G/ 8e/	.
=10	=10	=10	=10
4E:\ 4G:\ 4c:\	.	(16bb-\LL	f
.	.	16aa\	.
.	.	16gg\	.
.	.	16aa\JJ	.
4r	.	16gg\LL	.
.	.	16ff\	.
.	.	16ee\	.
.	.	16ff\JJ	.
4r	.	16ee\LL	.
.	.	16dd\	.
.	.	16cc\	.
.	.	16b-\JJ	.
=11	=11	=11	=11
(16F\LL	.	8a/)	.
16c\	.	.	.
16A\	.	(4aa\	.
16c\JJ	.	.	.
16G\LL	.	.	.
16e\	.	.	.
16B-\	.	4gg\	.
16e\JJ	.	.	.
16A\LL	.	.	.
16f\	.	.	.
16c\	.	8ff\)	.
16f\JJ)	.	.	.
=12	=12	=12	=12
8B-\	.	8r	.
8r	.	8f/ 8dd/	p
8BB-/	.	8r	.
8r	.	8B-/ 8g/	.
8C/	.	8r	.
8r	.	8G/ 8e/	.
=13	=13	=13	=13
!	!	!LO:TX:a:t=legato	!
4FF/ 4F/	.	12A/L	f
.	.	12f/	.
.	.	12c/J	.
4r	.	12a/L	.
.	.	12f/	.
.	.	12c/J	.
4CC/ 4C/	.	12B-/L	.
.	.	12g/	.
.	.	12e/J	.
=14	=14	=14	=14
*	*	*Xtuplet	*
4FFF/ 4FF/	.	12f/L	.
.	.	12A/	.
.	.	12c/J	.
4r	.	12g/L	.
.	.	12c/	.
.	.	12e/J	.
4r	.	12a/L	.
.	.	12c/	.
.	.	12f/J	.
=15	=15	=15	=15
4CC/ 4C/	.	12c/L	.
.	.	12g/	.
.	.	12e/J	.
4r	.	12b-/L	.
.	.	12g/	.
.	.	12e/J	.
4FF/ 4F/	.	12c/L	.
.	.	12a/	.
.	.	12f/J	.
=16	=16	=16	=16
4C\ 4c\	.	12g/L	.
.	.	12c/	.
.	.	12e/J	.
4r	.	12a/L	.
.	.	12c/	.
.	.	12f/J	.
4r	.	12b-/L	.
.	.	12c/	.
.	.	12g/J	.
=17	=17	=17	=17
4FF/ 4F/	.	12a\L	.
.	.	12cc\	.
.	.	12ff\J	.
4r	.	12aa\L	.
.	.	12ff\	.
.	.	12dd\J	.
4r	.	12cc\L	.
.	.	12ff\	.
.	.	12aa\J	.
=18	=18	=18	=18
4F\ (4f\	.	12aa-\L	.
.	.	12dd\	.
.	.	12bn\J	.
4E\ 4e\)	.	12cc\L	.
.	.	12ee\	.
.	.	12gg\J	.
4r	.	12ee-\L	.
.	.	12cc\	.
.	.	12b-\J	.
=19	=19	=19	=19
4E-\ (4e-\	.	12a\L	.
.	.	12cc\	.
.	.	12gg-\J	.
4D\ 4d\)	.	12ff\L	.
.	.	12dd\	.
.	.	12b-\J	.
4r	.	12a\L	.
.	.	12dd\	.
.	.	12ff\J	.
=20	=20	=20	=20
4D\ (4d\	.	12ff\L	.
.	.	12bn\	.
.	.	12g#\J	.
4C#\ 4c#\)	.	12a\L	.
.	.	12cc#\	.
.	.	12een\J	.
4r	.	12ccn\L	.
.	.	12a\	.
.	.	12gn\J	.
=21	=21	=21	=21
4CnX\ (4cnX\	.	12f#/L	.
.	.	12a/	.
.	.	12ee-/J	.
4BBn\ 4Bn\)	.	12dd\L	.
.	.	12bn\	.
.	.	12g\J	.
4r	.	12fn/L	.
.	.	12b-/	.
.	.	12dd/J	.
=22	=22	=22	=22
4BB-X\ (4B-X\	.	12dd-/L	.
.	.	12g/	.
.	.	12en/J	.
4AA\ 4A\)	.	12f/L	.
.	.	12a/	.
.	.	12cc/J	.
4r	.	12ff\L	.
.	.	12cc\	.
.	.	12a\J	.
=23	=23	=23	=23
4BB-\ 4B-\	.	12g/L	.
.	.	12b-/	.
.	.	12a/J	.
4r	.	12b-\L	.
.	.	12ddn\	.
.	.	12cc#\J	.
4r	.	12dd\L	.
.	.	12gg\	.
.	.	12ff#\J	.
=24	=24	=24	=24
2.r	.	12gg\L	.
.	.	12bb-\	.
.	.	12aa\J	.
.	.	12bb-\L	.
.	.	12ddd\	.
.	.	12ccc#\J	.
.	.	12ddd\L	.
.	.	12bb-\	.
.	.	12aa\J	.
=25	=25	=25	=25
4r	.	12bb-\L	.
.	.	12gg\	.
.	.	12ff#\J	.
4r	.	12gg\L	p
.	.	12dd\	.
.	.	12cc#\J	.
4BB-\ 4B-\	.	12dd\L	.
.	.	12b-\	.
.	.	12g\J	.
=26	=26	=26	=26
*^	*	*	*
(4A/	2C\	.	(4fn/	.
4G/)	.	.	4e/)	f
4ryy	4r	.	4r	.
*v	*v	*	*	*
=27	=27	=27	=27
4CC/ 4C/	f	2.r	.
4EE/ 4E/	.	.	.
4GG/ 4G/	.	.	.
=28	=28	=28	=28
2.r	.	(16gg\LL	p
.	.	16aa\	.
.	.	16gg\	.
.	.	16ee\JJ	.
.	.	16gg\LL	.
.	.	16aa\	.
.	.	16gg\	.
.	.	16ee\JJ	.
.	.	16ff\LL	.
.	.	16gg\	.
.	.	16ff\	.
.	.	16dd\JJ	.
*clefG2	*	*	*
=29	=29	=29	=29
(16g/LL	.	16ee\LL	.
16a/	.	16ff\	.
16g/	.	16ee\	.
16e/JJ	.	16cc\JJ	.
16g/LL	.	16ee\LL	.
16a/	.	16ff\	.
16g/	.	16ee\	.
16e/JJ	.	16cc\JJ	.
16f/LL	.	16dd\LL	.
16g/	.	16ee\	.
16f/	.	16dd\	.
16d/JJ	.	16bn\JJ	.
=30	=30	=30	=30
8e/L	.	4.cc\	.
8G/	.	.	.
8c/	.	.	.
8G/J	.	16dd\LL	.
.	.	16ee\JJ	.
4Bn/)	.	4dd\)	.
*clefF4	*	*	*
=31	=31	=31	=31
4GGG/ 4GG/	.	2.r	f
4BBBn/ 4BBn/	.	.	.
4DD/ 4D/	.	.	.
=32	=32	=32	=32
2.r	.	(16ff\LL	p
.	.	16gg\	.
.	.	16ff\	.
.	.	16dd\JJ	.
.	.	16ff\LL	.
.	.	16gg\	.
.	.	16ff\	.
.	.	16dd\JJ	.
.	.	16ee\LL	.
.	.	16ff\	.
.	.	16ee\	.
.	.	16cc\JJ	.
*clefG2	*	*	*
=33	=33	=33	=33
(16f/LL	.	16dd\LL	.
16g/	.	16ee\	.
16f/	.	16dd\	.
16d/JJ	.	16bn\JJ	.
16f/LL	.	16dd\LL	.
16g/	.	16ee\	.
16f/	.	16dd\	.
16d/JJ	.	16b\JJ	.
16e/LL	.	16cc\LL	.
16f/	.	16b\	.
16e/	.	16cc\	.
16c/JJ	.	16ee\JJ	.
=34	=34	=34	=34
8f/L	.	4.dd\	.
8d/	.	.	.
8Bn/	.	.	.
8G/J	.	16ee\LL	.
.	.	16ff\JJ)	.
4c/)	.	4ee\	.
*clefF4	*	*	*
=35	=35	=35	=35
*	*	*tuplet	*
4EE/ 4E/	.	12r	f
.	.	12gg'\L	.
.	.	12ff'\J	.
4r	.	12ee'\L	.
.	.	12gg'\	.
.	.	12dd\J	.
4r	.	12cc\L	.
.	.	12gg'\	.
.	.	12b-X'\J	.
=36	=36	=36	=36
*	*	*Xtuplet	*
4FF/ 4F/	.	12r	.
!	!	!LO:S:a	!
.	.	(12b-/L	p
.	.	12g#/J	.
4r	.	12a\L	.
.	.	12dd\	.
.	.	12cc#\J	.
4r	.	12ee\L	.
.	.	12dd\	.
.	.	12ff\J)	.
=37	=37	=37	=37
4FF#/ 4F#/	.	12r	f
.	.	12aa\L	.
.	.	12ggn'\J	.
4r	.	12ff#'\L	.
.	.	12aa'\	.
.	.	12ee'\J	.
4r	.	12dd'\L	.
.	.	12aa'\	.
.	.	12ccn\J	.
=38	=38	=38	=38
4GG/ 4G/	.	12r	p
.	.	(12cc\L	.
.	.	12a#\J	.
4r	.	12bn\L	.
.	.	12ee\	.
.	.	12dd#\J	.
4r	.	12ff#\L	.
.	.	12ee\	.
.	.	12gg\J)	.
=39	=39	=39	=39
4GG#/ 4G#/	.	12r	f
.	.	12bbn'\L	.
.	.	12aan'\J	.
4r	.	12gg#'\L	.
.	.	12bb'\	.
.	.	12ffn'\J	.
4r	.	12ee'\L	.
.	.	12bb'\	.
.	.	12ddn'\J	.
=40	=40	=40	=40
4AA\ 4A\	.	12r	.
.	.	(12bn\L	.
.	.	12cc\J)	.
*Xtuplet	*	*	*
*clefG2	*	*	*
12r	.	4ff'\	.
(12g#/L	.	.	.
12a/J)	.	.	.
12r	.	4ee'\	.
(12f#/L	.	.	.
12gn/J)	.	.	.
=41	=41	=41	=41
4fn/	.	12r	.
.	.	(12cc#\L	.
.	.	12dd\J)	.
12r	.	4aa'\	.
(12e/L	.	.	.
12f/J)	.	.	.
12r	.	4gg'\	.
(12d#/L	.	.	.
12e/J)	.	.	.
*clefF4	*	*	*
=42	=42	=42	=42
*^	*	*	*
4dn/	4F\	.	(16gg\LL	.
.	.	.	16ff\	.
.	.	.	16ee\	.
.	.	.	16dd\JJ	.
4e/	2G\	.	4ccn\)	.
4f/	.	.	(8.bnt/L	.
.	.	.	32a/LL)	.
.	.	.	32b/JJJ	.
*v	*v	*	*	*
=43	=43	=43	=43
(16C\LL	.	4cc\	.
16E\	.	.	.
16G\	.	.	.
16c\JJ	.	.	.
8e\)	.	16r	.
.	.	(16bn\LL	.
8r	.	16cc\	.
.	.	16dd\JJ	.
4r	.	16ff\LL	.
.	.	16ee\	.
.	.	16dd\	.
.	.	16cc\JJ	.
=44	=44	=44	=44
(16D\LL	.	4bn\)	.
16F\	.	.	.
16Bn\	.	.	.
16d\JJ	.	.	.
8f\)	.	16r	.
.	.	(16cc#\LL	.
8r	.	16dd\	.
.	.	16ee\JJ	.
4r	.	16gg\LL	.
.	.	16ff\	.
.	.	16ee\	.
.	.	16dd\JJ	.
=45	=45	=45	=45
(16E\LL	.	4ccn\)	.
16G\	.	.	.
16c\	.	.	.
16e\JJ	.	.	.
8g\)	.	16r	.
.	.	(16dd#\LL	.
8r	.	16ee\	.
.	.	16ff\JJ	.
4r	.	16aa\LL	.
.	.	16gg\	.
.	.	16ff\	.
.	.	16ee\JJ	.
*clefG2	*	*	*
=46	=46	=46	=46
4f/ 4a/	.	16cc#\LL	.
.	.	16ddn\	.
.	.	16ff\	.
.	.	16ee\JJ	.
4f/ 4a/	.	16cc#\LL	.
.	.	16dd\	.
.	.	16ff\	.
.	.	16ee\JJ	.
4f/ 4a/	.	16gg\LL	.
.	.	16ff\	.
.	.	16ee\	.
.	.	16dd\JJ	.
=47	=47	=47	=47
*^	*	*	*
4f/ 4a/ 4cc/	4ryy	.	16aa\LL	.
.	.	.	16ff\	.
.	.	.	16ee\	.
.	.	.	16dd\JJ)	.
.	.	.	(32ccq/LLL	.
.	.	.	32ddq/	.
.	.	.	32eeq/JJJ	.
(4cc/	2g\	.	2ddT\)	.
4bn/)	.	.	.	.
.	.	.	(16ccq/LL	.
.	.	.	16ddq/JJ)	.
*v	*v	*	*	*
*clefF4	*	*	*
=48	=48	=48	=48
(16CC/LL	.	4e:/ 4g:/ 4cc:/	p
16EE/	.	.	.
16GG/	.	.	.
16C/JJ	.	.	.
8E\)	.	8r	.
8r	.	(24Bn/LL	.
.	.	24c/	.
.	.	24d/JJ	.
4r	.	16f/LL	.
.	.	16e/	.
.	.	16d/	.
.	.	16c/JJ	.
=49	=49	=49	=49
(16DD/LL	.	4Bn/)	.
16FF/	.	.	.
16BBn/	.	.	.
16D/JJ	.	.	.
8F\)	.	16r	.
.	.	(16c#/LL	.
8r	.	16d/	.
.	.	16e/JJ	.
4r	.	16g/LL	.
.	.	16f/	.
.	.	16e/	.
.	.	16d/JJ	.
=50	=50	=50	=50
(16EE/LL	.	4cn/)	.
16GG/	.	.	.
16C/	.	.	.
16E/JJ	.	.	.
8G\)	.	16r	.
.	.	(16d#/LL	.
8r	.	16e/	.
.	.	16f/JJ	.
4r	.	16a/LL	.
.	.	16g/	.
.	.	16f/	.
.	.	16e/JJ	.
=51	=51	=51	=51
(16FF/LL	.	4dn/)	.
16AA/	.	.	.
16D/	.	.	.
16F/JJ	.	.	.
8A\)	.	16r	.
.	.	(16d/LL	.
8r	.	16f/	.
.	.	16a/JJ	.
16r	.	8dd\)	.
(16F\LL	.	.	.
16A\	.	8r	.
16d\JJ	.	.	.
=52	=52	=52	=52
8f\)	.	16r	.
.	.	(16a\LL	.
8r	.	16dd\	.
.	.	16ff\JJ	.
*clefG2	*	*	*
16r	.	8aa\)	.
(16f/LL	.	.	.
16a/	.	8r	.
16dd/JJ	.	.	.
8ff\)	.	16r	.
.	.	(16bbn\LL	.
8r	.	16ccc\	.
.	.	16gg#\JJ	.
=53	=53	=53	=53
*^	*	*	*
4ryy	4r	.	16aa\LL	.
.	.	.	16ee\	.
.	.	.	16ff\	.
.	.	.	16dd\JJ)	.
.	.	.	(32ccq/LLL	.
.	.	.	32ddq/	.
.	.	.	32eeq/JJJ	.
*clefF4	*clefF4	*	*	*
(4c/	2G\	.	2ddT\)	f
4Bn/)	.	.	.	.
.	.	.	(32ccq/LLL	.
.	.	.	32ddq/JJJ)	.
*v	*v	*	*	*
*clefG2	*	*	*
=54	=54	=54	=54
(16c/LL	.	8cc'\L	.
16g/	.	.	.
16e/	.	8ee'\J	.
16g/JJ	.	.	.
16c/LL	.	4gg\	.
16g/	.	.	.
16e/	.	.	.
16g/JJ	.	.	.
16G/LL	.	(8.bbnt\L	.
16f/	.	.	.
16d/	.	.	.
16f/JJ)	.	32aa\LL	.
.	.	32bb\JJJ	.
=55	=55	=55	=55
(16c/LL	.	8ccc'\L)	.
16g/	.	.	.
16e/	.	8ee'\J	.
16g/JJ	.	.	.
16c/LL	.	4gg\	.
16g/	.	.	.
16e/	.	.	.
16g/JJ	.	.	.
16G/LL	.	(8.bbnt\L	.
16f/	.	.	.
16d/	.	.	.
16f/JJ)	.	32aa\LL	.
.	.	32bb\JJJ	.
=56	=56	=56	=56
4c/ 4e/	.	4ccc\)	.
*clefF4	*	*	*
4C\ 4E\ 4G\	.	4e/ 4g/ 4cc/	.
4r	.	4r	.
=57:|!|:	=57:|!|:	=57:|!|:	=57:|!|:
*>B	*	*>B	*>B
*tuplet	*	*	*
12r	.	4ee\ 4gg\	p
!LO:S:a	!	!	!
(12C/L	.	.	.
12BBn/J	.	.	.
12C/L	.	4r	.
12E/	.	.	.
12D#/J	.	.	.
12E\L	.	4r	.
12G\	.	.	.
12F#\J	.	.	.
=58	=58	=58	=58
*Xtuplet	*	*	*
4G\)	.	4r	.
4r	.	8.ee\ (8.gg\L	.
.	.	16cc#\ 16ee\k)	.
4r	.	8.ee\ (8.gg\	.
.	.	16cc#\ 16ee\Jk)	.
=59	=59	=59	=59
12r	.	4dd\ 4ff\	.
(12G\L	.	.	.
12F#\J	.	.	.
12G\L	.	4r	.
12Bn\	.	.	.
12A#\J	.	.	.
12B\L	.	4r	.
12d\	.	.	.
12c#\J	.	.	.
=60	=60	=60	=60
4d\)	.	4r	.
4r	.	(8.f/ 8.dd/L	.
.	.	16d/) 16bn/k	.
4r	.	(8.f/ 8.dd/	.
.	.	16d/) 16b/Jk	.
=61	=61	=61	=61
!	!	!LO:S:a	!
.	.	(32eq/LLL	.
.	.	32gq/JJJ	.
4r	.	[2.cc\)	f
(8.c\L	.	.	.
16G\k	.	.	.
8.A\	.	.	.
16E\Jk	.	.	.
=62	=62	=62	=62
2.F\)	.	4cc\]	.
.	.	(8.dd\L	.
.	.	16a\k	.
.	.	8.bn\	.
.	.	16g\Jk)	.
=63	=63	=63	=63
*	*	*^	*
4E\	.	[2.gg/	4r	.
*clefG2	*	*	*	*
4e/ 4g/	.	.	(8.cc\L	.
.	.	.	16dd\k	.
4d/ 4f/	.	.	8.bn\	.
.	.	.	16cc\Jk)	.
=64	=64	=64	=64	=64
2c#/ 2e/	.	(4gg/_	(4b-X\	.
.	.	8.gg/L]	4a\)	.
.	.	16ee/k	.	p
4r	.	8.gg/	4r	.
.	.	16ee/Jk)	.	.
=65	=65	=65	=65	=65
4r	.	[2.gg/	4r	.
4e/ 4g/	.	.	(8.cc\L	.
.	.	.	16dd\k	.
4d/ 4f/	.	.	8.bn\	.
.	.	.	16cc\Jk	.
=66	=66	=66	=66	=66
2c#/ 2e/	.	2gg/]	4b-\	.
.	.	.	4a\)	.
4r	.	4ryy	4r	.
*	*	*v	*v	*
*clefF4	*	*	*
=67	=67	=67	=67
!	!LO:DY:a	!	!
4DD/ 4D/	f	2.r	.
4FF/ 4F/	.	.	.
4AA/ 4A/	.	.	.
=68	=68	=68	=68
2.r	.	(16aa\LL	.
.	.	16bb-\	.
.	.	16aa\	.
.	.	16ff\JJ	.
.	.	16gg\LL	.
.	.	16aa\	.
.	.	16gg\	.
.	.	16ee\JJ	.
.	.	16ff\LL	.
.	.	16gg\	.
.	.	16ff\	.
.	.	16dd\JJ)	.
=69	=69	=69	=69
4GGG/ 4GG/	.	4b-:\ 4dd:\ 4gg:\ 4bb-:\	.
4BBB-/ 4BB-/	.	4r	.
4DD/ 4D/	.	4r	.
=70	=70	=70	=70
2.r	.	(16dd\LL	.
.	.	16ee-\	.
.	.	16dd\	.
.	.	16b-\JJ	.
.	.	16cc\LL	.
.	.	16dd\	.
.	.	16cc\	.
.	.	16a\JJ	.
.	.	16b-\LL	.
.	.	16cc\	.
.	.	16b-\	.
.	.	16g\JJ)	.
=71	=71	=71	=71
4CC/ 4C/	.	4en:/ 4g:/ 4cc:/ 4een:/	.
4EE/ 4E/	.	4r	.
4GG/ 4G/	.	4r	.
=72	=72	=72	=72
2.r	.	(16gg\LL	.
.	.	16aa\	.
.	.	16gg\	.
.	.	16ee\JJ	.
.	.	16ff\LL	.
.	.	16gg\	.
.	.	16ff\	.
.	.	16dd\JJ	.
.	.	16ee\LL	.
.	.	16ff\	.
.	.	16ee\	.
.	.	16cc\JJ)	.
=73	=73	=73	=73
4FFF/ 4FF/	.	4a:\ 4cc:\ 4ff:\ 4aa:\	.
4AAA/ 4AA/	.	4r	.
4CC/ 4C/	.	4r	.
=74	=74	=74	=74
2.r	.	(16cc\LL	.
.	.	16dd\	.
.	.	16cc\	.
.	.	16a\JJ	.
.	.	16b-/LL	.
.	.	16cc/	.
.	.	16b-/	.
.	.	16g/JJ	.
.	.	16a/LL	.
.	.	16b-/	.
.	.	16a/	.
.	.	16f/JJ)	.
=75	=75	=75	=75
4BB-\ 4B-\	.	4dd:\ 4ff:\ 4gg#:\ 4ddd:\	.
(4c#jj\	.	(4ejj/	p
4djj\)	.	4fjj/)	.
=76	=76	=76	=76
4AA\ 4A\	.	4dd:\ 4ff:\ 4aa:\ 4ddd:\	f
(4c#jj\	.	(4e/	p
4djj\)	.	4f/)	.
=77	=77	=77	=77
4GG#/ 4G#/	.	4dd:\ 4ff:\ 4bbn:\ 4ddd:\	f
(4c#jj\	.	(4e/	p
4djj\)	.	4f/)	.
=78	=78	=78	=78
[2.AA\ [2.A\	.	12c#/L	f
.	.	(12a/	.
.	.	12e/J	.
.	.	12d/L	.
.	.	12b-X/	.
.	.	12f/J	.
.	.	12d/L	.
.	.	12g#/	.
.	.	12f/J	.
=79	=79	=79	=79
2.AA\] 2.A\]	.	12c#/L	.
.	.	12a/	.
.	.	12e/J	.
.	.	12d/L	.
.	.	12b-/	.
.	.	12f/J	.
.	.	12d/L	.
.	.	12g#/	.
.	.	12f/J)	.
=80	=80	=80	=80
4A\ 4c#\ 4e\	.	4r	.
4r	.	(8b-/L	.
.	.	8a/J)	.
4r	.	4a'/	.
=81	=81	=81	=81
4G#\ 4d\ 4f\	.	4r	p
4r	.	(8cc\L	.
.	.	8bn\J)	.
4r	.	4b'\	.
=82	=82	=82	=82
4Gn\ 4cn\ 4e\	.	4r	.
4r	.	(8cc\L	.
.	.	8b-X\J)	.
4r	.	4b-'\	.
=83	=83	=83	=83
4FF/ 4F/	.	4c:/ 4f:/ 4a:/ 4cc:/	f
4C/	.	4a/ 4cc/	.
4AA/	.	4a/ 4cc/	.
=84	=84	=84	=84
4FF/	.	4.a/ 4.cc/	.
4FFF/	.	.	.
.	.	16dd\LL	.
.	.	(16cc\JJ	.
4r	.	16b-/LL	.
.	.	16a/	.
.	.	16g/	.
.	.	16f/JJ	.
=85	=85	=85	=85
8F\ 8A\L	.	4ff\	.
8F\ 8A\	.	.	.
8F\ 8G\ 8B-\	.	4ee\	.
8F\ 8G\ 8B-\	.	.	.
8F\ 8A\ 8c\	.	4ee-\)	.
8F\ 8A\ 8c\J	.	.	.
=86	=86	=86	=86
8F\ 8B-\ 8d\L	.	4dd\	.
8F\ 8B-\ 8d\	.	.	.
8F\ 8B-\ 8d\	.	4r	.
8F\ 8B-\ 8d\	.	.	.
8F\ 8B-\ 8d\	.	4r	.
8F\ 8B-\ 8d\J	.	.	.
=87	=87	=87	=87
8F\ 8G\ 8e\L	.	(8cc\L	p
8F\ 8G\ 8e\	.	8b-\J)	.
8F\ 8G\ 8e\	.	4b-'\	.
8F\ 8G\ 8e\	.	.	.
8F\ 8G\ 8e\	.	4r	.
8F\ 8G\ 8e\J	.	.	.
=88	=88	=88	=88
8F\ 8A\ 8f\L	.	(8dd\L	.
8F\ 8A\ 8f\	.	8cc\J)	.
8F\ 8A\ 8f\	.	4cc'\	.
8F\ 8A\ 8f\	.	.	.
8F\ 8A\ 8f\	.	4r	.
8F\ 8A\ 8f\J	.	.	.
=89	=89	=89	=89
4E:\ 4G:\ 4c:\	.	(16bb-\LL	f
.	.	16aa\	.
.	.	16gg\	.
.	.	16aa\JJ	.
4r	.	16gg\LL	.
.	.	16ff\	.
.	.	16ee\	.
.	.	16ff\JJ	.
4r	.	16ee\LL	.
.	.	16dd\	.
.	.	16cc\	.
.	.	16b-\JJ	.
=90	=90	=90	=90
(16F\LL	.	8a/)	.
16c\	.	.	.
16A\	.	(4ff\	.
16c\JJ	.	.	.
16G\LL	.	.	.
16c\	.	.	.
16B-\	.	4ee\	.
16c\JJ	.	.	.
16A\LL	.	.	.
16c\	.	.	.
16A\	.	8ff\)	.
16c\JJ	.	.	.
=91	=91	=91	=91
8B-\)	.	8r	p
8r	.	8f/ 8dd/	.
8BB-/	.	8r	.
8r	.	8B-/ 8g/	.
8C/	.	8r	.
8r	.	8G/ 8e/	.
=92	=92	=92	=92
4E:\ 4G:\ 4c:\	.	(16bb-\LL	f
.	.	16aa\	.
.	.	16gg\	.
.	.	16aa\JJ	.
4r	.	16gg\LL	.
.	.	16ff\	.
.	.	16ee\	.
.	.	16ff\JJ	.
4r	.	16ee\LL	.
.	.	16dd\	.
.	.	16cc\	.
.	.	16b-\JJ)	.
=93	=93	=93	=93
(16F\LL	.	8a/	.
16c\	.	.	.
16A\	.	(4aa\	.
16c\JJ	.	.	.
16G\LL	.	.	.
16e\	.	.	.
16B-\	.	4gg\	.
16e\JJ	.	.	.
16A\LL	.	.	.
16f\	.	.	.
16c\	.	8ff\)	.
16f\JJ	.	.	.
=94	=94	=94	=94
8B-\)	.	8r	.
8r	.	8f/ 8dd/	p
8BB-/	.	8r	.
8r	.	8B-/ 8g/	.
8C/	.	8r	.
8r	.	8G/ 8e/	.
=95	=95	=95	=95
*	*	*tuplet	*
!	!	!LO:TX:a:t=legato	!
4FF/ 4F/	.	12A/L	f
.	.	12f/	.
.	.	12c/J	.
4r	.	12a/L	.
.	.	12f/	.
.	.	12c/J	.
4CC/ 4C/	.	12B-/L	.
.	.	12g/	.
.	.	12e/J	.
=96	=96	=96	=96
*	*	*Xtuplet	*
4FFF/ 4FF/	.	12f/L	.
.	.	12A/	.
.	.	12c/J	.
4r	.	12g/L	.
.	.	12c/	.
.	.	12e/J	.
4r	.	12a/L	.
.	.	12c/	.
.	.	12f/J	.
=97	=97	=97	=97
4CC/ 4C/	.	12c/L	.
.	.	12g/	.
.	.	12e/J	.
4r	.	12b-/L	.
.	.	12g/	.
.	.	12e/J	.
4FF/ 4F/	.	12c/L	.
.	.	12a/	.
.	.	12f/J	.
=98	=98	=98	=98
4C\ 4c\	.	12g/L	.
.	.	12c/	.
.	.	12e/J	.
4r	.	12a/L	.
.	.	12c/	.
.	.	12f/J	.
4r	.	12b-/L	.
.	.	12c/	.
.	.	12g/J	.
=99	=99	=99	=99
4FF/ 4F/	.	12a\L	.
.	.	12cc\	.
.	.	12ff\J	.
4r	.	12aa\L	.
.	.	12ff\	.
.	.	12dd\J	.
4r	.	12cc\L	.
.	.	12ff\	.
.	.	12aa\J	.
=100	=100	=100	=100
4F\ (4f\	.	12aa-\L	.
.	.	12dd\	.
.	.	12bn\J	.
4E\ 4e\)	.	12cc\L	.
.	.	12ee\	.
.	.	12gg\J	.
4r	.	12ee\L	.
.	.	12cc\	.
.	.	12g\J	.
=101	=101	=101	=101
*	*	*^	*
2.ryy	.	(4ccc#/	12b-X\L	.
.	.	.	12a\	.
.	.	.	12g\J	.
.	.	4ddd/)	12f#\L	.
.	.	.	12a\	.
.	.	.	12dd\J	.
.	.	4r	12a\L	.
.	.	.	12dd\	.
.	.	.	12ff#\J	.
*	*	*v	*v	*
=102	=102	=102	=102
4D\ (4d\	.	12ffn\L	.
.	.	12bn\	.
.	.	12g#\J	.
4Cn\ 4cn\)	.	12a\L	.
.	.	12cc\	.
.	.	12ee\J	.
4r	.	12cc/L	.
.	.	12a/	.
.	.	12e/J	.
=103	=103	=103	=103
*	*	*^	*
2.ryy	.	(4aa/	12g-\L	.
.	.	.	12f\	.
.	.	.	12e-\J	.
.	.	4bb-X/)	12d\L	.
.	.	.	12f\	.
.	.	.	12b-X\J	.
.	.	4r	12f\L	.
.	.	.	12b-\	.
.	.	.	12dd\J	.
*	*	*v	*v	*
=104	=104	=104	=104
4BB-\ (4B-\	.	12dd-/L	.
.	.	12gn/	.
.	.	12en/J	.
4AA\ 4A\)	.	12f/L	.
.	.	12a/	.
.	.	12cc/J	.
4r	.	12ff\L	.
.	.	12cc\	.
.	.	12a\J	.
=105	=105	=105	=105
!	!	!LO:S:a	!
4BB-\ 4B-\	.	(12g/L	.
.	.	12b-/	.
.	.	12a/J	.
4r	.	12b-\L	.
.	.	12ddn\	.
.	.	12cc#\J	.
4r	.	12dd\L	.
.	.	12gg\	.
.	.	12ff#\J	.
=106	=106	=106	=106
2.r	.	12gg\L	.
.	.	12bb-\	.
.	.	12aa\J	.
.	.	12bb-\L	.
.	.	12ddd\	.
.	.	12ccc#\J	.
.	.	12ddd\L	.
.	.	12bb-\	.
.	.	12aa\J	.
=107	=107	=107	=107
4r	.	12bb-\L	.
.	.	12gg\	.
.	.	12ff#\J	.
4r	.	12gg\L	p
.	.	12dd\	.
.	.	12cc#\J	.
4BB-\ 4B-\	.	12dd\L	.
.	.	12b-\	.
.	.	12g\J	.
=108	=108	=108	=108
*^	*	*	*
(4A/	2C\	.	4fn/)	.
4G/)	.	.	4e/	.
4r	4ryy	.	4r	.
*v	*v	*	*	*
=109	=109	=109	=109
!	!LO:DY:a	!	!
4FFF/ 4FF/	f	2.r	.
4AAA/ 4AA/	.	.	.
4CC/ 4C/	.	.	.
=110	=110	=110	=110
2.r	.	(16ccc\LL	p
.	.	16ddd\	.
.	.	16ccc\	.
.	.	16aa\JJ	.
.	.	16ccc\LL	.
.	.	16ddd\	.
.	.	16ccc\	.
.	.	16aa\JJ	.
.	.	16bb-\LL	.
.	.	16ccc\	.
.	.	16bb-\	.
.	.	16gg\JJ	.
*clefG2	*	*	*
=111	=111	=111	=111
(16cc\LL	.	16aa\LL	.
16dd\	.	16bb-\	.
16cc\	.	16aa\	.
16a\JJ	.	16ff\JJ	.
16cc\LL	.	16aa\LL	.
16dd\	.	16bb-\	.
16cc\	.	16aa\	.
16a\JJ	.	16ff\JJ	.
16b-\LL	.	16gg\LL	.
16cc\	.	16aa\	.
16b-\	.	16gg\	.
16g\JJ	.	16ee\JJ	.
=112	=112	=112	=112
8a/L	.	4.ff\	.
8c/	.	.	.
8f/	.	.	.
8c/J	.	16gg\LL	.
.	.	16aa\JJ	.
4e/)	.	4gg\)	.
*clefF4	*	*	*
=113	=113	=113	=113
!	!LO:DY:a	!	!
4CC/ 4C/	f	2.r	.
4EE/ 4E/	.	.	.
4GG/ 4G/	.	.	.
=114	=114	=114	=114
2.r	.	(16bb-\LL	p
.	.	16ccc\	.
.	.	16bb-\	.
.	.	16gg\JJ	.
.	.	16bb-\LL	.
.	.	16ccc\	.
.	.	16bb-\	.
.	.	16gg\JJ	.
.	.	16aa\LL	.
.	.	16bb-\	.
.	.	16aa\	.
.	.	16ff\JJ	.
*clefG2	*	*	*
=115	=115	=115	=115
(16b-/LL	.	16gg\LL	.
16cc/	.	16aa\	.
16b-/	.	16gg\	.
16g/JJ	.	16ee\JJ	.
16b-/LL	.	16gg\LL	.
16cc/	.	16aa\	.
16b-/	.	16gg\	.
16g/JJ	.	16ee\JJ	.
16a/LL	.	16ff\LL	.
16b-/	.	16ee\	.
16a/	.	16ff\	.
16f/JJ	.	16aa\JJ	.
=116	=116	=116	=116
8b-/L	.	4.gg\	.
8g/	.	.	.
8e/	.	.	.
8c/J	.	16aa\LL	.
.	.	16bb-\JJ	.
4f/)	.	4aa\)	.
*clefF4	*	*	*
=117	=117	=117	=117
4FF/ 4F/	.	16r	f
.	.	(16ccc\LL	.
.	.	16bb-\	.
.	.	16ccc\JJ	.
4AA/ 4A/	.	16aa\LL	.
.	.	16bb-\	.
.	.	16gg\	.
.	.	16aa\JJ	.
4C\ 4c\	.	16ff\LL	.
.	.	16gg\	.
.	.	16ee\	.
.	.	16ff\JJ)	.
=118	=118	=118	=118
16r	.	4d/ 4dd/	.
(16D/LL	.	.	.
16C/	.	.	.
16D/JJ	.	.	.
16BB-/LL	.	4f\ 4ff\	.
16C/	.	.	.
16AA/	.	.	.
16BB-/JJ	.	.	.
16GG/LL	.	4b-\ 4bb-\	.
16AA/	.	.	.
16FF/	.	.	.
16GG/JJ)	.	.	.
=119	=119	=119	=119
4EE/ 4E/	.	16r	.
.	.	(16bb-\LL	.
.	.	16aa\	.
.	.	16bb-\JJ	.
4GG/ 4G/	.	16gg\LL	.
.	.	16aa\	.
.	.	16ff\	.
.	.	16gg\JJ	.
4BB-\ 4B-\	.	16ee\LL	.
.	.	16ff\	.
.	.	16dd\	.
.	.	16ee\JJ)	.
=120	=120	=120	=120
16r	.	4c/ 4cc/	.
(16C/LL	.	.	.
16BB-/	.	.	.
16C/JJ	.	.	.
16AA/LL	.	4e/ 4ee/	.
16BB-/	.	.	.
16GG/	.	.	.
16AA/JJ	.	.	.
16FF/LL	.	4a\ 4aa\	.
16GG/	.	.	.
16EE/	.	.	.
16FF/JJ)	.	.	.
=121	=121	=121	=121
4DD/ 4D/	.	16r	.
.	.	(16aa\LL	.
.	.	16gg\	.
.	.	16aa\JJ	.
16r	.	16ff\LL	.
(16e\LL	.	16gg\	.
16c\	.	16ee\	.
16d\JJ	.	16ff\JJ	.
16B-\LL	.	16dd\LL	.
16c\	.	16ee\	.
16A\	.	16cc\	.
16B-\JJ	.	16dd\JJ	.
=122	=122	=122	=122
16G\LL	.	16b-/LL	.
16A\	.	16cc/	.
16F\	.	16a/	.
16G\JJ	.	16b-/JJ	.
16E\LL	.	16g/LL	.
16F\	.	16a/	.
16D\	.	16f/	.
16E\JJ	.	16g/JJ	.
16C/LL	.	16e/LL	.
16D/	.	16f/	.
16BB-/	.	16d/	.
16C/JJ)	.	16e/JJ	.
=123	=123	=123	=123
*	*	*tuplet	*
4AAA/ 4AA/	.	12c'/L)	.
.	.	12cc'/	.
.	.	12b-'/J	.
4r	.	12a'/L	.
.	.	12cc'/	.
.	.	12g'/J	.
4r	.	12f'/L	.
.	.	12cc'/	.
.	.	12e-'/J	.
=124	=124	=124	=124
*	*	*Xtuplet	*
4BBB-/ 4BB-/	.	12r	.
.	.	(12e-/L	p
.	.	12c#/J	.
4r	.	12d/L	.
.	.	12g/	.
.	.	12f#/J	.
4r	.	12a/L	.
.	.	12g/	.
.	.	12b-/J)	.
=125	=125	=125	=125
4BBBn/ 4BBn/	.	12r	.
.	.	12dd'\L	f
.	.	12ccn'\J	.
4r	.	12bn'\L	.
.	.	12dd'\	.
.	.	12a'\J	.
4r	.	12g'/L	.
.	.	12dd'/	.
.	.	12fn'/J	.
=126	=126	=126	=126
4CC/ 4C/	.	12r	.
.	.	(12f/L	p
.	.	12d#/J	.
4r	.	12e/L	.
.	.	12a/	.
.	.	12g#/J	.
4r	.	12bn/L	.
.	.	12a/	.
.	.	12cc/J)	.
=127	=127	=127	=127
4CC#/ 4C#/	.	12r	.
.	.	12ee'\L	f
.	.	12ddn'\J	.
4r	.	12cc#'\L	.
.	.	12ee'\	.
.	.	12b-X'\J	.
4r	.	12a'\L	.
.	.	12ee'\	.
.	.	12gn'\J	.
=128	=128	=128	=128
4DD/ 4D/	.	12r	.
.	.	(12e/L	.
.	.	12f/J)	.
12r	.	4b-'/	.
(12c#\L	.	.	.
12d\J)	.	.	.
12r	.	4a'/	.
(12Bn\L	.	.	.
12cn\J)	.	.	.
=129	=129	=129	=129
4B-X\	.	12r	.
.	.	(12f#/L	.
.	.	12g/J)	.
12r	.	4dd'\	.
(12A\L	.	.	.
12B-\J)	.	.	.
12r	.	4cc'\	.
(12G#\L	.	.	.
12A\J)	.	.	.
=130	=130	=130	=130
*^	*	*	*
4Gn/	4BB-\	.	(16cc/LL	.
.	.	.	16b-/	.
.	.	.	16a/	.
.	.	.	16g/JJ	.
4A/	2C\	.	4fn/)	.
4B-/	.	.	(8.et/L	.
.	.	.	32d/LL	.
.	.	.	32e/JJJ)	.
*v	*v	*	*	*
=131	=131	=131	=131
(16F\LL	.	4f/	.
16A\	.	.	.
16c\	.	.	.
16f\JJ	.	.	.
8a\)	.	16r	.
.	.	(16ee\LL	.
8r	.	16ff\	.
.	.	16gg\JJ	.
4r	.	16bb-\LL	.
.	.	16aa\	.
.	.	16gg\	.
.	.	16ff\JJ	.
*clefG2	*	*	*
=132	=132	=132	=132
(16G/LL	.	4ee\)	.
16B-/	.	.	.
16e/	.	.	.
16g/JJ	.	.	.
8b-/)	.	16r	.
.	.	(16ff#\LL	.
8r	.	16gg\	.
.	.	16aa\JJ	.
4r	.	16ccc\LL	.
.	.	16bb-\	.
.	.	16aa\	.
.	.	16gg\JJ	.
=133	=133	=133	=133
(16A/LL	.	4ffn\)	.
16c/	.	.	.
16f/	.	.	.
16a/JJ	.	.	.
8cc\)	.	16r	.
.	.	(16gg#\LL	.
8r	.	16aa\	.
.	.	16bb-\JJ	.
4r	.	16ddd\LL	.
.	.	16ccc\	.
.	.	16bb-\	.
.	.	16aa\JJ	.
=134	=134	=134	=134
4b-\ 4dd\	.	16ff#\LL	.
.	.	16ggn\	.
.	.	16bb-\	.
.	.	16aa\JJ	.
4b-\ 4dd\	.	16ff#\LL	.
.	.	16gg\	.
.	.	16bb-\	.
.	.	16aa\JJ	.
4b-\ 4dd\	.	16ccc\LL	.
.	.	16bb-\	.
.	.	16aa\	.
.	.	16gg\JJ	.
=135	=135	=135	=135
*^	*	*	*
4ryy	4b-\ 4dd\ 4ff\	.	16ddd\LL	.
.	.	.	16bb-\	.
.	.	.	16aa\	.
.	.	.	16gg\JJ)	.
.	.	.	(32ffq/LLL	.
.	.	.	32ggq/	.
.	.	.	32aaq/JJJ	.
(4ff/	2cc\	.	2ggT\)	.
4ee/)	.	.	.	.
.	.	.	(32ffq/LLL	.
.	.	.	32ggq/JJJ)	.
*v	*v	*	*	*
*clefF4	*	*	*
=136	=136	=136	=136
(16FF/LL	.	4a:\ 4cc:\ 4ff:\	p
16AA/	.	.	.
16C/	.	.	.
16F/JJ	.	.	.
8A\)	.	16r	.
.	.	(16e/LL	.
8r	.	16f/	.
.	.	16g/JJ	.
4r	.	16b-/LL	.
.	.	16a/	.
.	.	16g/	.
.	.	16f/JJ	.
=137	=137	=137	=137
(16GG/LL	.	4e/)	.
16BB-/	.	.	.
16E/	.	.	.
16G/JJ	.	.	.
8B-\)	.	16r	.
.	.	(16f#/LL	.
8r	.	16g/	.
.	.	16a/JJ	.
4r	.	16cc/LL	.
.	.	16b-/	.
.	.	16a/	.
.	.	16g/JJ	.
=138	=138	=138	=138
(16AA\LL	.	4fnX/)	.
16C\	.	.	.
16F\	.	.	.
16A\JJ	.	.	.
8c\)	.	16r	.
.	.	(16g#/LL	.
8r	.	16a/	.
.	.	16b-/JJ	.
4r	.	16dd/LL	.
.	.	16cc/	.
.	.	16b-/	.
.	.	16a/JJ	.
=139	=139	=139	=139
(16BB-\LL	.	4gn/)	.
16D\	.	.	.
16G\	.	.	.
16B-\JJ	.	.	.
8d\)	.	16r	.
.	.	(16G/LL	.
8r	.	16B-/	.
.	.	16d/JJ	.
16r	.	8g/)	.
(16BB-\LL	.	.	.
16D\	.	8r	.
16G\JJ	.	.	.
=140	=140	=140	=140
8B-\)	.	16r	.
.	.	(16d/LL	.
8r	.	16g/	.
.	.	16b-/JJ	.
*clefG2	*	*	*
16r	.	8dd\)	.
(16B-/LL	.	.	.
16d/	.	8r	.
16g/JJ	.	.	.
8b-/)	.	16r	.
.	.	(16ee\LL	.
8r	.	16ff\	.
.	.	16cc#\JJ)	.
=141	=141	=141	=141
*^	*	*	*
4r	4ryy	.	(16dd\LL	.
.	.	.	16a\	.
.	.	.	16b-\	.
.	.	.	16g\JJ)	.
.	.	.	(32fq/LLL	.
.	.	.	32gq/	.
.	.	.	32aq/JJJ	.
*clefF4	*clefF4	*	*	*
(4F/	2C\	.	2gT/)	.
4E/)	.	.	.	.
.	.	.	(32fq/LLL	.
.	.	.	32gq/JJJ)	.
*v	*v	*	*	*
=142	=142	=142	=142
16F\LL	.	8f'/L	.
(16c\	.	.	.
16A\	.	8a'/J	.
16c\JJ	.	.	.
16F\LL	.	4cc\	.
16c\	.	.	.
16A\	.	.	.
16c\JJ	.	.	.
16C\LL	.	(8.eet\L	.
16B-\	.	.	.
16G\	.	.	.
16B-\JJ	.	32dd\LL	.
.	.	32ee\JJJ	.
=143	=143	=143	=143
16F\LL	.	8ff'\L)	.
16c\	.	.	.
16A\	.	8a'\J	.
16c\JJ	.	.	.
16F\LL	.	4cc\	.
16c\	.	.	.
16A\	.	.	.
16c\JJ	.	.	.
16C\LL	.	(8.eet\L	.
16B-\	.	.	.
16G\	.	.	.
16B-\JJ)	.	32dd\LL	.
.	.	32ee\JJJ	.
=144	=144	=144	=144
4F\ 4A\	.	4ff\)	.
4FF/ 4F/	.	4A/ 4c/ 4f/	.
4r	.	4r	.
=:|!	=:|!	=:|!	=:|!
*-	*-	*-	*-
!!!SMS: Alte Mozart-Ausgabe, Band 20, Breitkopf &amp; H&auml;rtel 1877-1883.
!!!ONB: Stich und Druck von Breitkopf &amp; H&auml;rtel in Leipzig
!!!ONB: Ausgegeben 1878
!!!ENC: Craig Stuart Sapp
!!!END: 2009/09/24/
!!!EED: Craig Stuart Sapp
!!!EEV: 2016/07/31/
!!!title: @{OTL}, K 280 (189e), @{OMV}
